sofa.svg

<svg fill="currentColor" viewBox="0 0 24 24"><path d="M12.5 7c0-1.11.89-2 2-2H18c1.1 0 2 .9 2 2v2.16c-1.16.41-2 1.51-2 2.81V14h-5.5zM6 11.96V14h5.5V7c0-1.11-.89-2-2-2H6c-1.1 0-2 .9-2 2v2.15c1.16.41 2 1.52 2 2.81m14.66-1.93c-.98.16-1.66 1.09-1.66 2.09V15H5v-3a2 2 0 1 0-4 0v5c0 1.1.9 2 2 2v2h2v-2h14v2h2v-2c1.1 0 2-.9 2-2v-5c0-1.21-1.09-2.18-2.34-1.97"/></svg>

<svg  viewBox="0 0 24 24" fill="currentColor"><path  d="M12.5 7C12.5 5.89 13.39 5 14.5 5H18C19.1 5 20 5.9 20 7V9.16C18.84 9.57 18 10.67 18 11.97V14H12.5V7M6 11.96V14H11.5V7C11.5 5.89 10.61 5 9.5 5H6C4.9 5 4 5.9 4 7V9.15C5.16 9.56 6 10.67 6 11.96M20.66 10.03C19.68 10.19 19 11.12 19 12.12V15H5V12C5 10.9 4.11 10 3 10S1 10.9 1 12V17C1 18.1 1.9 19 3 19V21H5V19H19V21H21V19C22.1 19 23 18.1 23 17V12C23 10.79 21.91 9.82 20.66 10.03Z"/></svg>
